X:454
T:Glendaruel Highlanders 
C:Joe Buchanan's Scottish Tome - Page 077.0
I:077 0
C:P.M. A. Fettas
R:Pipe March
Z:Carl Allison
L:1/8
M:6/8
K:A
e | "A"A>AA A>Bc | e>ce {fg}(f2 e) |"A"c>BA "D"(f<a)c |"A"{f}e3 "A7"e>fa |
"A"A>AA A>Bc | e>ce {fg}(f2 e) | "D"(f<a)c "A"e>dB|"A"A3 {B}A2 :|
(ed) | "A"{d}c2 A "E7"(c<e)B | "A"{d}c2 A Ace | {fg}(f2 A) f<af |  "A"{f}e3 "E7"e>fa |
"A"{d}c2 A "E7"(c<e)B | "A"{d}c2 A A>ce | "F#m"f>ec "E7"e>dB | "A"A3 A (ed) |
{d}c2 A "E7"(c<e)B | {d}c2 A A>ce | "D"f2 A (f<a)f | "A"e3 "E7"e>fg |
"A"a>cc c>fe | "Bm"f>BB B>fe | "F#m"(f<a)c "E7"e>dB | "A"A3 {B}A |]
(ed) |"A"{d}c3 "E7"e>cB | "A"A>Bc (e2 c) | "D"{fg}f3 a>gf | "A"{f}e3 "E7"e>fa |
"A"{d}c3 "E7"e>cB | "A"A>Bc ef=g | "D"(f<a)c "E7"e>dB | "A"A3 {B}A :|
g | "A"{b}a3 "E7"f>ec | "A"A>Bc {f}(e2 c) | "D"{fg}f3 "A"e>dc | "E7"B3 {c}(B2 g) |
"A"{b}a3 "E7"f>ec | "A"A>Bc e>f=g | "D"(f<a)c "E7"e>dB | "A"A3 {B}A2 g |
"A"{b}a3 "E7"f>ec | "A"ABc {f}(e2 c) | "D"{g}f3 "A"e>dc | "E7"B3 {c}B (ed) |
"A"(c<e)c "E7"d>cB | "A"A>Bc e>f=g | "D"(f<a)c "E7"e>dB | A3 {B}A2 |]

